X: 46
P: No. XLVI.
M: 6/8
L: 1/8
K: G
V: 1
geg fdB | cec dBG | GBd cAc | BGG G2 :|
|: c |\
[BG][BG][BG] [cA][cA][cA] | dBG TA2G | Bcd efg | fdd d2e/f/ |\
geg fdB | cec dBG | GBd cAc | BGG G2 :|
V: 2 clef=bass middle=d
z |\
e3 d3 | c3 B3 | B3 d3 | GGG G2 :|
|: z |\
g3 f3 | g3 d3 | g3 c3 | ddd d2z |\
e3 d3 | c3 B3 | B3 d3 | GGG G2 :|

